X:1
T:Ved Rondane
T:Ved Rondane
T:Op. 33, Nr. 9
T:Edvard Grieg
T:A. O. Vinje
C:Edvard Grieg
Z:A. O. Vinje
%%score [ 1 2 3 ]
L:1/8
Q:1/4=60
M:4/4
K:C
V:1 treble nm="Sopran"
V:2 treble nm="Sopran"
V:3 treble nm="Alt"
V:1
"^Andante tranquillamente" z4!p! z C E F | G3 G A A!<(! c3/2 A/!<)! |!>(! A2 G4!>)! z G | %3
w: 1.No ser eg|at- ter sli- ke Fjell og|Da- lar, som|
w: 2.Ja, Li- vet|strøy- mer på meg som det|strøym- de, når|
 E C E G A3/2!<(! A/ A ^G!<)! | B4 z!>(! E ^G A!>)! |!pp! B3 B c c e3/2 c/ | c2 B4 z ^G | %7
w: deim eg i min fyr- ste Ung- dom|såg, og sa- me|Vind den hei- te Pan- na|sva- lar; og|
w: un- der Snjo eg såg det grø- ne|Strå. Eg drøy- mer|no som fyrr eg all- tid|drøym- de, når|
 B3/2 B/ B ^G B3/2 B/ B ^c | B4!mf! z!<(! E A B!<)! |!>(! c3/2 c/!>)! c2- c!<(! ^G A B!<)! | %10
w: Gul- let ligg på Snjo, som fyrr det|låg. Det er eit|Bar- ne- mål, _ som til meg|
w: sli- ke Fjell eg såg i Luf- ti|blå. Eg gløy- mer|Dag- sens Strid, _ som fyrr eg|
!>(! d2 c2-!>)! c!<(! ^G A B!<)! |!>(! !>!d3/2 c/!>)! c2- c"^dim." c A c |!p!!<(! B6- B!<)!!ff! G | %13
w: ta- lar, _ og gjer meg|tan- ke- full, _ men en- då|fjåg. _ Med|
w: gløym- de, _ når eg mot|Kveld av Sol _ ein Glimt fekk|sjå. _ Eg|
 c!<(! d e!<)! d c!>(! d c!>)! A | c2 G4 z E |"^dim." G A B A G!>(! A G E!>)! |!p! G2 C4 z2 |] %17
w: Ung- doms- min- ne er den Ta- la|blan- da: Det|strøy- mer på meg, so eg knapt kan|an- da.|
w: fin- ner vel eit Hus, som vil meg|hy- sa, når|So- li heim til Not- ti vil meg|ly- sa.|
V:2
 z4!p! z C C D | E3 E E E!<(! A3/2 E/!<)! |!>(! D2 D4!>)! z D | C C C D E3/2!<(! E/ E E!<)! | %4
w: 1.No ser eg|at- ter sli- ke Fjell og|Da- lar, som|deim eg i min fyr- ste Ung- dom|
w: 2.Ja, Li- vet|strøy- mer på meg som det|strøym- de, når|un- der Snjo eg såg det grø- ne|
 ^G4 z!>(! E E ^F!>)! |!pp! ^G3 G G G G3/2 G/ | ^G2 G4 z E | ^G3/2 G/ G G A3/2 A/ G ^^F | %8
w: såg, og sa- me|Vind den hei- te Pan- na|sva- lar; og|Gul- let ligg på Snjo, som fyrr det|
w: Strå. Eg drøy- mer|no som fyrr eg all- tid|drøym- de, når|sli- ke Fjell eg såg i Luf- ti|
 ^G4!mf! z!<(! E E E!<)! | (EA^G) =G ^F!<(! F =F F!<)! | (EA^G=G) ^F!<(! F =F F!<)! | %11
w: låg. Det er eit|Bar- * * ne- mål, som til meg|ta- * * * lar, og gjer meg|
w: blå. Eg gløy- mer|Dag- * * sens Strid, som fyrr eg|gløym- * * * de, når eg mot|
!>(! !>!A3/2 A/!>)! A2- A"^dim." A ^F A |!p!!<(! (^G2 =G2 ^F2 =F)!<)!!ff! F | %13
w: tan- ke- full, _ men en- då|fjåg. _ _ _ Med|
w: Kveld av Sol _ ein Glimt fekk|sjå. _ _ _ Eg|
 E!<(! G c!<)! B A!>(! ^G A!>)! F | G2 C4 z C |"^dim." F F F F F!>(! F D B,!>)! |!p! E2 C4 z2 |] %17
w: Ung- doms- min- ne er den Ta- la|blan- da: Det|strøy- mer på meg, so eg knapt kan|an- da.|
w: fin- ner vel eit Hus, som vil meg|hy- sa, når|So- li heim til Not- ti vil meg|ly- sa.|
V:3
 z4!p! z C C C | C3 C C C!<(! E3/2 C/!<)! |!>(! B,2 B,4!>)! z B, | C C A, B, C3/2!<(! C/ C B,!<)! | %4
w: 1.No ser eg|at- ter sli- ke Fjell og|Da- lar, som|deim eg i min fyr- ste Ung- dom|
w: 2.Ja, Li- vet|strøy- mer på meg som det|strøym- de, når|un- der Snjo eg såg det grø- ne|
 E4 z!>(! E E E!>)! |!pp! E3 E E E C3/2 E/ | E2 E4 z B, | E3/2 E/ E B, ^D3/2 D/ D D | %8
w: såg, og sa- me|Vind den hei- te Pan- na|sva- lar; og|Gul- let ligg på Snjo, som fyrr det|
w: Strå. Eg drøy- mer|no som fyrr eg all- tid|drøym- de, når|sli- ke Fjell eg såg i Luf- ti|
 E4!mf! z!<(! E C B,!<)! | A,3 A, A,!<(! D D D!<)! | A,4 A,!<(! D D D!<)! | %11
w: låg. Det er eit|Bar- ne- mål, som til meg|ta- lar, og gjer meg|
w: blå. Eg gløy- mer|Dag- sens Strid, som fyrr eg|gløym- de, når eg mot|
!>(! !>!F3/2 F/!>)! (FE^D)"^dim." D D D |!p!!<(! E4 _E2 D!<)!!ff! D | %13
w: tan- ke- full, _ _ men en- då|fjåg. _ _ Med|
w: Kveld av Sol _ _ ein Glimt fekk|sjå. _ _ Eg|
 C!<(! B, C!<)! E F!>(! E F!>)! F | F2 E4 z C |"^dim." B, C D C B,!>(! C B, G,!>)! |!p! C2 C4 z2 |] %17
w: Ung- doms- min- ne er den Ta- la|blan- da: Det|strøy- mer på meg, so eg knapt kan|an- da.|
w: fin- ner vel eit Hus, som vil meg|hy- sa, når|So- li heim til Not- ti vil meg|ly- sa.|

